X: 18
T: Master Crowley's
R: reel
M: 4/4
L: 1/8
K: Edor
|:B~e3 Bege|edBd Adfd|Bee2 Bege|fad'a feed|
B2ee Bege|edBd Adfd|B~e3 Bege|1 fad'a feed:|2 fad'a feea||
|:Bbab g2eg|fdad bdad|Bbab g2eg|dBAF FEEA|
Bbab g2eg|fdad bdad|EFGA BAGB|1 AFDE FEEA:|2 AFDE FEED||



